m/partners/pnr17.svg

<svg width="85" height="40" viewBox="0 0 85 40" fill="none" xmlns="http://www.w3.org/2000/svg">
<path d="M19.5834 33.0072V35.0887H5V33.0072H19.5834ZM42.3737 33.0072C40.9108 34.3508 38.9947 35.094 37.0076 35.0885L21.6667 35.068V33.0072H42.3737ZM64.0575 33.0072L63.3301 35.0885L62.6091 33.0072H64.0575ZM57.0834 33.0072V35.0887H46.6667V33.0072H57.0833H57.0834ZM80 33.0072V35.0887H69.5834V33.0072H80ZM44.7334 29.0341C44.5547 29.7642 44.2724 30.465 43.8953 31.1153H21.6667V29.0341H44.7334ZM65.4537 29.0341L64.7226 31.1155H61.9442L61.2129 29.0341H65.4537ZM57.0834 29.0341V31.1153H46.6667V29.0341H57.0833H57.0834ZM80 29.0341V31.1153H69.5834V29.0341H80ZM19.5834 29.0341V31.1153H5V29.0341H19.5834ZM15.4165 25.0605V27.1419H9.1666V25.0605H15.4167H15.4165ZM32.0832 25.0605V27.1419H25.8332V25.0605H32.0832ZM44.6833 25.0605C44.868 25.7389 44.9616 26.4388 44.962 27.1419H37.9546V25.0605H44.6833ZM66.85 25.0605L66.1186 27.1419H60.5479L59.8164 25.0605H66.85ZM57.0833 25.0605V27.1419H50.8332V25.0605H57.0833ZM75.8333 25.0605V27.1419H69.5832V25.0605H75.8333ZM15.4165 21.0872V23.1684H9.1666V21.0872H15.4167H15.4165ZM57.0833 21.0872V23.1684H50.8332V21.0872H57.0833ZM75.8333 21.0872V23.1684H69.5832V21.0872H75.8333ZM42.155 21.0872C42.8488 21.6768 43.4366 22.3806 43.8928 23.1683H25.8333V21.087L42.155 21.0872ZM68.2462 21.0872L67.515 23.1684H59.1515L58.4202 21.087H68.2462V21.0872ZM62.7475 17.1138L63.3332 18.7962L63.9187 17.1138H75.8331V19.1951H69.5835V17.2829L68.9111 19.1953H57.7555L57.0833 17.2826V19.1953H50.8335V17.1138H62.7477H62.7475ZM25.8332 17.1138H43.8931C43.4368 17.9015 42.849 18.6054 42.1552 19.1951H25.8333V17.1137L25.8332 17.1138ZM15.4165 17.1138V19.1951H9.1666V17.1137H15.4167L15.4165 17.1138ZM15.4165 13.1404V15.2217H9.1666V13.1404H15.4167H15.4165ZM32.0832 13.1404V15.2217H25.8332V13.1404H32.0832ZM44.9621 13.1404C44.9617 13.8434 44.868 14.5433 44.6833 15.2217H37.9546V13.1404H44.9621ZM61.3644 13.1404L62.0889 15.2217H50.8335V13.1404H61.3646H61.3644ZM75.8331 13.1404V15.2217H64.5775L65.3019 13.1404H75.8331ZM19.5831 9.16692V11.2483H5V9.16678H19.5834L19.5831 9.16692ZM43.8951 9.16692C44.2723 9.81728 44.5545 10.5181 44.7333 11.2482H21.6664V9.16692H43.8951ZM79.9999 9.16692V11.2482H65.9605L66.685 9.16692H80H79.9999ZM59.9813 9.16692L60.7058 11.2482H46.6666V9.16692H59.9814H59.9813ZM19.5835 5.19376V7.27488H5V5.19361H19.5834L19.5835 5.19376ZM37.0076 5.19361C38.9942 5.19092 40.9093 5.93372 42.3737 7.27488H21.6667V5.19361H37.0076ZM80 5.19361V7.27502H67.3438L68.0683 5.19376H80V5.19361ZM58.5986 5.19361L59.323 7.27502H46.6667V5.19376H58.5985L58.5986 5.19361Z" fill="#2B354E"/>
</svg>

<svg xmlns="http://www.w3.org/2000/svg" fill="none" viewBox="0 0 85 40"><path fill="#2B354E" d="M19.583 33.007v2.082H5v-2.082h14.583Zm22.79 0a7.9 7.9 0 0 1-5.365 2.082l-15.341-.021v-2.06h20.707Zm21.685 0-.728 2.082-.72-2.082h1.448Zm-6.975 0v2.082H46.667v-2.082h10.416Zm22.917 0v2.082H69.583v-2.082H80Zm-35.267-3.973a7.887 7.887 0 0 1-.838 2.081H21.667v-2.08h23.066Zm20.72 0-.73 2.082h-2.779l-.731-2.082h4.24Zm-8.37 0v2.081H46.667v-2.08h10.416Zm22.917 0v2.081H69.583v-2.08H80Zm-60.417 0v2.081H5v-2.08h14.583Zm-4.166-3.973v2.08h-6.25v-2.08h6.25Zm16.666 0v2.08h-6.25v-2.08h6.25Zm12.6 0a7.94 7.94 0 0 1 .279 2.08h-7.007v-2.08h6.728Zm22.167 0-.731 2.08h-5.571l-.732-2.08h7.034Zm-9.767 0v2.08h-6.25v-2.08h6.25Zm18.75 0v2.08h-6.25v-2.08h6.25Zm-60.416-3.974v2.081h-6.25v-2.08h6.25Zm41.666 0v2.081h-6.25v-2.08h6.25Zm18.75 0v2.081h-6.25v-2.08h6.25Zm-33.678 0a7.979 7.979 0 0 1 1.738 2.081h-18.06v-2.081h16.322Zm26.091 0-.731 2.081h-8.364l-.73-2.081h9.825Zm-5.498-3.973.585 1.682.586-1.682h11.914v2.081h-6.25v-1.912l-.672 1.912H57.755l-.672-1.912v1.912h-6.25v-2.081h11.915Zm-36.915 0h18.06a7.984 7.984 0 0 1-1.738 2.081H25.833v-2.081Zm-10.416 0v2.081h-6.25v-2.081h6.25Zm0-3.974v2.082h-6.25V13.14h6.25Zm16.666 0v2.082h-6.25V13.14h6.25Zm12.88 0a7.94 7.94 0 0 1-.28 2.082h-6.728V13.14h7.007Zm16.401 0 .725 2.082H50.834V13.14h10.53Zm14.47 0v2.082H64.576l.725-2.082h10.531Zm-56.25-3.973v2.081H5V9.167h14.583Zm24.311 0c.377.65.66 1.351.838 2.081H21.666V9.167h22.23Zm36.105 0v2.081H65.96l.725-2.081H80Zm-20.019 0 .725 2.081h-14.04V9.167h13.315ZM19.583 5.194v2.08H5v-2.08h14.583Zm17.425 0a7.93 7.93 0 0 1 5.366 2.08H21.667v-2.08h15.34Zm42.992 0v2.081H67.344l.724-2.081H80Zm-21.401 0 .724 2.081H46.667V5.194h11.931Z"/></svg>
